src/icons/code.svg

<svg width="16" height="16" xmlns="http://www.w3.org/2000/svg"><path d="M4.708 5.578L2.061 8.224l2.647 2.646-.708.708-3-3V7.87l3-3 .708.708zm7-.708L11 5.578l2.647 2.646L11 10.87l.708.708 3-3V7.87l-3-3zM4.908 13l.894.448 5-10L9.908 3l-5 10z"/></svg>

<svg width="16" height="16" viewBox="0 0 16 16" fill="none" xmlns="http://www.w3.org/2000/svg">
<path d="M4.708 5.578L2.061 8.224L4.708 10.87L4 11.578L1 8.578V7.87L4 4.87L4.708 5.578ZM11.708 4.87L11 5.578L13.647 8.224L11 10.87L11.708 11.578L14.708 8.578V7.87L11.708 4.87ZM4.908 13L5.802 13.448L10.802 3.448L9.908 3L4.908 13Z" fill="white"/>
</svg>
